X:0
T:Owin at her
G:song or reel
S:Margaret Sinkler MS, Glasgow 1710
M:4/4
L:1/4
Q:1/2=160
K:Ddor
A|GGGA|FFcA|GGGA|F>ED:|
f|dddf|cAfc|ddde|f>edg|
  fdfc|AFcA|GGGA|F>ED|]

Later versions are often like this one.  It has a sixth gap, but the third
varies between natural and sharp, making it a mixture of dorian and mixolydian:

